app/images/icons/car.svg

<svg width="58" height="58" viewBox="0 0 58 58" fill="none" xmlns="http://www.w3.org/2000/svg">
<path d="M54.5355 43.8109H50.9458V42.2433H54.0362C54.5823 41.009 54.8644 39.6741 54.8644 38.3244C54.8644 36.9746 54.5823 35.6398 54.0362 34.4055H21.162C19.5725 34.4055 11.3482 35.0254 8.94436 35.9589L8.52895 36.1196C7.05387 36.6902 3.13495 38.2053 3.13495 39.1082V41.4595C3.13495 41.6674 3.21753 41.8668 3.36452 42.0137C3.5115 42.1607 3.71086 42.2433 3.91873 42.2433H6.27009V43.8109H3.91873C3.29512 43.8109 2.69704 43.5631 2.25608 43.1222C1.81511 42.6812 1.56738 42.0831 1.56738 41.4595V39.1082C1.56738 37.2765 4.33963 36.0585 7.96384 34.6578L8.37611 34.5011C11.1632 33.4155 19.7762 32.8379 21.162 32.8379H54.5355C54.682 32.8372 54.8257 32.8777 54.9504 32.9545C55.0751 33.0314 55.1757 33.1417 55.2409 33.2729C56.0266 34.841 56.4358 36.5708 56.4358 38.3248C56.4358 40.0787 56.0266 41.8085 55.2409 43.3767C55.1756 43.5077 55.0749 43.6178 54.9502 43.6946C54.8256 43.7713 54.6819 43.8116 54.5355 43.8109Z" fill="#2A364E"/>
<path d="M15.6755 42.2432H20.1353V43.8107H15.6755V42.2432Z" fill="#2A364E"/>
<path d="M15.6799 42.2471H41.6799V43.8171H15.6799V42.2471Z" fill="#2A364E"/>
<path d="M15.8905 34.7667L15.4602 33.2595C17.2629 32.7438 18.5256 31.6136 19.9858 30.2976C22.613 27.9376 25.8814 25 33.7028 25C41.1801 25 45.0676 28.1163 47.9128 30.3916C49.6191 31.7586 50.9664 32.8378 52.5136 32.8378V34.4054C50.4162 34.4054 48.8024 33.1129 46.933 31.6151C44.1271 29.3665 40.6299 26.5676 33.7028 26.5676C26.4818 26.5676 23.588 29.1689 21.0345 31.4646C19.4959 32.8465 18.0436 34.1522 15.8905 34.7667Z" fill="#2A364E"/>
<path d="M46.2433 48.514C45.1582 48.514 44.0974 48.1922 43.1952 47.5894C42.2929 46.9865 41.5897 46.1296 41.1745 45.1271C40.7592 44.1246 40.6506 43.0214 40.8623 41.9571C41.074 40.8929 41.5965 39.9153 42.3638 39.148C43.1311 38.3807 44.1087 37.8581 45.173 37.6464C46.2372 37.4347 47.3404 37.5434 48.3429 37.9587C49.3454 38.3739 50.2023 39.0771 50.8052 39.9794C51.408 40.8816 51.7298 41.9424 51.7298 43.0275C51.7282 44.4821 51.1496 45.8767 50.121 46.9052C49.0925 47.9338 47.6979 48.5123 46.2433 48.514ZM46.2433 39.1086C45.4682 39.1086 44.7106 39.3384 44.0661 39.769C43.4216 40.1997 42.9193 40.8117 42.6227 41.5278C42.3261 42.2439 42.2485 43.0319 42.3997 43.7921C42.5509 44.5522 42.9242 45.2505 43.4722 45.7986C44.0203 46.3467 44.7186 46.7199 45.4788 46.8711C46.239 47.0223 47.0269 46.9447 47.743 46.6481C48.4591 46.3515 49.0712 45.8492 49.5018 45.2047C49.9324 44.5603 50.1622 43.8026 50.1622 43.0275C50.161 41.9885 49.7477 40.9925 49.013 40.2578C48.2784 39.5231 47.2823 39.1098 46.2433 39.1086Z" fill="#2A364E"/>
<path d="M10.9731 48.514C9.88794 48.514 8.82718 48.1922 7.92493 47.5894C7.02269 46.9865 6.31947 46.1296 5.90421 45.1271C5.48895 44.1246 5.3803 43.0214 5.592 41.9571C5.80369 40.8929 6.32623 39.9153 7.09353 39.148C7.86083 38.3807 8.83843 37.8581 9.9027 37.6464C10.967 37.4347 12.0701 37.5434 13.0726 37.9587C14.0752 38.3739 14.932 39.0771 15.5349 39.9794C16.1378 40.8816 16.4595 41.9424 16.4595 43.0275C16.4579 44.4821 15.8793 45.8767 14.8508 46.9052C13.8222 47.9338 12.4277 48.5123 10.9731 48.514ZM10.9731 39.1086C10.198 39.1086 9.44029 39.3384 8.79583 39.769C8.15136 40.1997 7.64907 40.8117 7.35245 41.5278C7.05584 42.2439 6.97823 43.0319 7.12944 43.7921C7.28066 44.5522 7.6539 45.2505 8.20197 45.7986C8.75004 46.3467 9.44832 46.7199 10.2085 46.8711C10.9687 47.0223 11.7567 46.9447 12.4728 46.6481C13.1889 46.3515 13.8009 45.8492 14.2315 45.2047C14.6621 44.5603 14.892 43.8026 14.892 43.0275C14.8907 41.9885 14.4775 40.9925 13.7428 40.2578C13.0081 39.5231 12.012 39.1098 10.9731 39.1086Z" fill="#2A364E"/>
<path d="M32.1353 25.7959H33.7028V33.622H32.1353V25.7959Z" fill="#2A364E"/>
</svg>

<svg width="58" height="58" fill="none" xmlns="http://www.w3.org/2000/svg"><path d="M54.535 43.81h-3.59v-1.567h3.091a9.686 9.686 0 0 0 0-7.837H21.162c-1.59 0-9.814.62-12.218 1.553l-.415.16c-1.475.571-5.394 2.086-5.394 2.99v2.35a.784.784 0 0 0 .784.784H6.27v1.568H3.92a2.352 2.352 0 0 1-2.352-2.352v-2.35c0-1.833 2.773-3.05 6.397-4.451l.412-.157c2.787-1.085 11.4-1.663 12.786-1.663h33.373a.784.784 0 0 1 .706.435 11.278 11.278 0 0 1 0 10.104.784.784 0 0 1-.706.434Z" fill="#2A364E"/><path d="M15.675 42.243h4.46v1.568h-4.46v-1.568Z" fill="#2A364E"/><path d="M15.68 42.247h26v1.57h-26v-1.57ZM15.89 34.767l-.43-1.508c1.803-.515 3.066-1.645 4.526-2.961C22.613 27.938 25.88 25 33.703 25c7.477 0 11.365 3.116 14.21 5.392 1.706 1.367 3.053 2.446 4.6 2.446v1.567c-2.097 0-3.71-1.292-5.58-2.79-2.806-2.248-6.303-5.047-13.23-5.047-7.221 0-10.115 2.6-12.669 4.897-1.538 1.381-2.99 2.687-5.143 3.302Z" fill="#2A364E"/><path d="M46.243 48.514a5.487 5.487 0 1 1 5.487-5.486 5.492 5.492 0 0 1-5.487 5.486Zm0-9.405a3.919 3.919 0 1 0 0 7.837 3.919 3.919 0 0 0 0-7.837ZM10.973 48.514a5.487 5.487 0 1 1 5.486-5.486 5.493 5.493 0 0 1-5.486 5.486Zm0-9.405a3.92 3.92 0 1 0 0 7.838 3.92 3.92 0 0 0 0-7.838ZM32.135 25.796h1.568v7.826h-1.568v-7.826Z" fill="#2A364E"/></svg>
